X: 1
T: F\"orr bl\aast p\aa horn
O: efter Haga Olof Persson
N: Badly-copied printed copy notated "K. S. 1923"
N: A-bas
M: 3/4
L: 1/16
K: Dm
|: {F}F4 E3F (EFED) | (^C2E2) D8 | {e}f3g a4 (f2a2) | {a}g4{AG} e8 :|
|: ({e}f3g) a4 (f2a2) | (g2e2) ^c4 (e2g2) | (Tf2e2) d4 (=B2d2) | ^c2{dc}z2 A4 |
|  ({e}f3g) a4 (f2a2) | (g2e2) ^c4 a4 | (^ga3) f3e d3e | ^c2z2 d8 :|
